!!!COM: Music21
!!!OTL: Valse de Santa Eufemia
!!!OMV: pezas_valses_valse-de-santa-eufemia_valse-de-santa-eufemia-partitura.musicxml
**kern
*I"Bagpipes
*I'Bag
*clefG^2
*k[]
*M3/4
=1
!LO:TX:a:t=Presto
*MM184
!LO:TX:a:t=[quarter]=184
2r
4cc
=||
8eeL
8ddJ
8ccL
8eeJ
8ddL
8ccJ
=
8eeL
8ddJ
8ccL
8eeJ
8ddL
8ccJ
=
8eeL
8ddJ
8ccL
8eeJ
8ddL
8ccJ
=
8ffL
8eeJ
8ddL
8ffJ
8eeL
8ddJ
=
8ffL
8eeJ
8ddL
8ffJ
8eeL
8ddJ
=
8eeL
8ddJ
8ccL
8eeJ
8ddL
8ccJ
!!linebreak:original
=
8ddL
8ccJ
8bL
8ddJ
8ccL
8bJ
=
2dd
4cc
=||
8eeL
8ddJ
8ccL
8eeJ
8ddL
8ccJ
=
8eeL
8ddJ
8ccL
8eeJ
8ddL
8ccJ
=
8eeL
8ddJ
8ccL
8eeJ
8ddL
8ccJ
=
8ffL
8eeJ
8ddL
8ffJ
8eeL
8ddJ
=
8ffL
8eeJ
8ddL
8ffJ
8eeL
8ddJ
=
8eeL
8ddJ
8ccL
8eeJ
8ddL
8ccJ
!!linebreak:original
=
8ddL
8ccJ
8bL
8ddJ
8ccL
8bJ
=
8ccL
8ccJ
8ddL
8eeJ
8ffL
8ggJ
=||
8aa-XL
8ggJ
8ffL
8eeJ
8ffL
8ggJ
=
2.aa-X
=
8ggL
8ffJ
8eeL
8ddJ
8eeL
8ffJ
=
2.gg
=
8ffL
8eeJ
8ddL
8ccJ
8ddL
8eeJ
=
4ff
4.gg
8ff
=
2ee
4ff
!!linebreak:original
=
8ggL
8ccJ
8ddL
8eeJ
8ffL
8ggJ
=
8aa-XL
8ggJ
8ffL
8eeJ
8ffL
8ggJ
=
2.aa-X
=
8ggL
8ffJ
8eeL
8ddJ
8eeL
8ffJ
=
2.gg
=
8ffL
8eeJ
8ddL
8ccJ
8ddL
8eeJ
=
4ff
4.gg
8ff
=
2ee
4dd
=
2cc
4cc
=||
2.gg
=
2ee
4cc
!!linebreak:original
=
[2.dd
!!linebreak:original
=
4dd]
8bL
8ccJ
8bL
8ccJ
=
2.dd
=
4b
4.ee
8dd
=
[2.cc
=
2cc]
4cc
=
2.aa
=
4ff
4gg
8aaL
8bbJ
=
[2.gg
=
2gg]
4cc
=
2.aa
=
4ff
4gg
8aaL
8bbJ
=
[2.gg
=
2gg]
4cc
!!linebreak:original
=
2.gg
=
2ee
4cc
!!linebreak:original
=
[2.dd
=
4dd]
8bL
8ccJ
8bL
8ccJ
=
2.dd
=
4b
4.ee
8dd
=
[2.cc
=
2cc]
4cc
=||
8eeL
8ddJ
8ccL
8eeJ
8ddL
8ccJ
=
!LO:TX:a:t=Fine
8eeL
8ddJ
8ccL
8eeJ
8ddL
8ccJ
=
8eeL
8ddJ
8ccL
8eeJ
8ddL
8ccJ
=
8ffL
8eeJ
8ddL
8ffJ
8eeL
8ddJ
!!linebreak:original
=
8ffL
8eeJ
8ddL
8ffJ
8eeL
8ccJ
=
8eeL
8ddJ
8ccL
8eeJ
8ddL
8ccJ
=
8ddL
8ccJ
8bL
8ddJ
8ccL
8bJ
=
2cc
4cc
=||
8eeL
8ddJ
8ccL
8eeJ
8ddL
8ccJ
=
!LO:TX:a:t=Fine
8eeL
8ddJ
8ccL
8eeJ
8ddL
8ccJ
=
8eeL
8ddJ
8ccL
8eeJ
8ddL
8ccJ
=
8ffL
8eeJ
8ddL
8ffJ
8eeL
8ddJ
!!linebreak:original
=
8ffL
8eeJ
8ddL
8ffJ
8eeL
8ccJ
=
8ggL
8eeJ
8ccL
8eeJ
8ddL
8ccJ
=
8ffL
8ddJ
8bL
8ddJ
8ccL
8bJ
=
2cc
4gg
=
8ccc
8r
2r
==
*-
